files/1/16x16/places/folder.svg

<?xml version="1.0" encoding="UTF-8" standalone="no"?>
<!-- Created with Inkscape (http://www.inkscape.org/) -->

<svg
   xmlns:dc="http://purl.org/dc/elements/1.1/"
   xmlns:cc="http://creativecommons.org/ns#"
   xmlns:rdf="http://www.w3.org/1999/02/22-rdf-syntax-ns#"
   xmlns:svg="http://www.w3.org/2000/svg"
   xmlns="http://www.w3.org/2000/svg"
   xmlns:sodipodi="http://sodipodi.sourceforge.net/DTD/sodipodi-0.dtd"
   xmlns:inkscape="http://www.inkscape.org/namespaces/inkscape"
   id="svg3396"
   height="16"
   width="16"
   version="1.0"
   inkscape:version="0.48.4 r9939"
   sodipodi:docname="gnome-folder.svg">
  <metadata
     id="metadata64">
    <rdf:RDF>
      <cc:Work
         rdf:about="">
        <dc:format>image/svg+xml</dc:format>
        <dc:type
           rdf:resource="http://purl.org/dc/dcmitype/StillImage" />
        <dc:title></dc:title>
      </cc:Work>
    </rdf:RDF>
  </metadata>
  <sodipodi:namedview
     pagecolor="#ffffff"
     bordercolor="#666666"
     borderopacity="1"
     objecttolerance="10"
     gridtolerance="10"
     guidetolerance="10"
     inkscape:pageopacity="0"
     inkscape:pageshadow="2"
     inkscape:window-width="1366"
     inkscape:window-height="712"
     id="namedview62"
     showgrid="true"
     inkscape:zoom="23.74981"
     inkscape:cx="3.6472868"
     inkscape:cy="4.4793987"
     inkscape:window-x="0"
     inkscape:window-y="27"
     inkscape:window-maximized="1"
     inkscape:current-layer="svg3396">
    <inkscape:grid
       type="xygrid"
       id="grid3906"
       empspacing="5"
       visible="true"
       enabled="true"
       snapvisiblegridlinesonly="true" />
  </sodipodi:namedview>
  <defs
     id="defs3398">
    <radialGradient
       id="radialGradient2661"
       gradientUnits="userSpaceOnUse"
       cy="35.126999"
       cx="23.070999"
       gradientTransform="matrix(1.0638,0.013724,-0.009553,0.23168,118.76592,36.591726)"
       r="10.319">
      <stop
         id="stop2093"
         offset="0" />
      <stop
         id="stop2095"
         style="stop-opacity:0"
         offset="1" />
    </radialGradient>
    <linearGradient
       id="linearGradient2658"
       y2="46.073002"
       gradientUnits="userSpaceOnUse"
       x2="28.857"
       y1="26"
       x1="28.857"
       gradientTransform="translate(106.84292,-0.48127441)">
      <stop
         id="stop3499"
         style="stop-color:#699536"
         offset="0" />
      <stop
         id="stop3501"
         style="stop-color:#587d2d"
         offset="1" />
    </linearGradient>
    <linearGradient
       id="linearGradient2656"
       y2="32.485001"
       gradientUnits="userSpaceOnUse"
       x2="24.104"
       gradientTransform="matrix(0.89889,0,0,0.89347,121.37892,14.952726)"
       y1="15.169"
       x1="24.104">
      <stop
         id="stop2266"
         style="stop-color:#d7e866"
         offset="0" />
      <stop
         id="stop2268"
         style="stop-color:#8cab2a"
         offset="1" />
    </linearGradient>
    <linearGradient
       id="linearGradient2653"
       y2="47.272999"
       gradientUnits="userSpaceOnUse"
       x2="24.139"
       gradientTransform="matrix(0.53994,0,0,0.53668,129.99392,23.012726)"
       y1="6.5317001"
       x1="24.139">
      <stop
         id="stop4224"
         style="stop-color:#fff"
         offset="0" />
      <stop
         id="stop4226"
         style="stop-color:#fff;stop-opacity:0"
         offset="1" />
    </linearGradient>
    <radialGradient
       id="radialGradient2455"
       gradientUnits="userSpaceOnUse"
       cy="5.0172"
       cx="3"
       gradientTransform="matrix(-1.2749e-8,1.7143,-2.1593,-1.46e-8,12.809,2.857)"
       r="21">
      <stop
         id="stop3486"
         style="stop-color:#bdbdbd"
         offset="0" />
      <stop
         id="stop3488"
         style="stop-color:#d0d0d0"
         offset="1" />
    </radialGradient>
    <linearGradient
       id="linearGradient2453"
       y2="16.190001"
       gradientUnits="userSpaceOnUse"
       x2="62.988998"
       gradientTransform="translate(-50.941,0)"
       y1="13.183"
       x1="62.988998">
      <stop
         id="stop6406"
         style="stop-color:#f9f9f9"
         offset="0" />
      <stop
         id="stop6408"
         style="stop-color:#c9c9c9"
         offset="1" />
    </linearGradient>
    <radialGradient
       id="radialGradient7600-312"
       gradientUnits="userSpaceOnUse"
       cy="486.64999"
       cx="605.71002"
       gradientTransform="matrix(-0.03213,0,0,0.037059,23.363,25.412)"
       r="117.14">
      <stop
         id="stop2681"
         offset="0" />
      <stop
         id="stop2683"
         style="stop-opacity:0"
         offset="1" />
    </radialGradient>
    <radialGradient
       id="radialGradient7598-526"
       gradientUnits="userSpaceOnUse"
       cy="486.64999"
       cx="605.71002"
       gradientTransform="matrix(0.03213,0,0,0.037059,24.637,25.412)"
       r="117.14">
      <stop
         id="stop2675"
         offset="0" />
      <stop
         id="stop2677"
         style="stop-opacity:0"
         offset="1" />
    </radialGradient>
    <linearGradient
       id="linearGradient7596-975"
       y2="609.51001"
       gradientUnits="userSpaceOnUse"
       x2="302.85999"
       gradientTransform="matrix(0.08284,0,0,0.037059,-5.9408,25.412)"
       y1="366.64999"
       x1="302.85999">
      <stop
         id="stop2667"
         style="stop-opacity:0"
         offset="0" />
      <stop
         id="stop2669"
         offset=".5" />
      <stop
         id="stop2671"
         style="stop-opacity:0"
         offset="1" />
    </linearGradient>
    <linearGradient
       id="linearGradient2446"
       y2="15.944"
       gradientUnits="userSpaceOnUse"
       x2="65.339996"
       gradientTransform="translate(-53.765,-0.11419)"
       y1="45.113998"
       x1="82.453003">
      <stop
         id="stop3624"
         style="stop-color:#bb2b12"
         offset="0" />
      <stop
         id="stop3626"
         style="stop-color:#cd7233"
         offset="1" />
    </linearGradient>
    <radialGradient
       id="radialGradient2444"
       gradientUnits="userSpaceOnUse"
       cy="14.113"
       cx="63.969002"
       gradientTransform="matrix(1.5647,-9.5143e-8,6.1772e-8,1.0159,-86.213,8.1461)"
       r="23.097">
      <stop
         id="stop3618"
         style="stop-color:#f0c178"
         offset="0" />
      <stop
         id="stop3270"
         style="stop-color:#e18941"
         offset=".5" />
      <stop
         id="stop3620"
         style="stop-color:#ec4f18"
         offset="1" />
    </radialGradient>
    <linearGradient
       id="linearGradient2441"
       y2="36.658001"
       gradientUnits="userSpaceOnUse"
       x2="22.809"
       gradientTransform="matrix(1.1447,0,0,0.99775,-3.4661,1.0988)"
       y1="49.629002"
       x1="22.934999">
      <stop
         id="stop2661"
         style="stop-color:#0a0a0a;stop-opacity:.498"
         offset="0" />
      <stop
         id="stop2663"
         style="stop-color:#0a0a0a;stop-opacity:0"
         offset="1" />
    </linearGradient>
    <radialGradient
       id="radialGradient2438"
       gradientUnits="userSpaceOnUse"
       cy="8.3021002"
       cx="7.2646999"
       gradientTransform="matrix(0,1.208,-1.6272,0,26.372,8.2665)"
       r="20.98">
      <stop
         id="stop2693"
         style="stop-color:#fff;stop-opacity:0.4"
         offset="0" />
      <stop
         id="stop2695"
         style="stop-color:#fff;stop-opacity:0"
         offset="1" />
    </radialGradient>
    <linearGradient
       id="linearGradient2435"
       y2="33.955002"
       gradientUnits="userSpaceOnUse"
       x2="15.215"
       y1="22.292"
       x1="11.566">
      <stop
         id="stop2687"
         style="stop-color:#fff;stop-opacity:.27451"
         offset="0" />
      <stop
         id="stop2689"
         style="stop-color:#fff;stop-opacity:.078431"
         offset="1" />
    </linearGradient>
  </defs>
  <path
     style="font-size:medium;font-style:normal;font-variant:normal;font-weight:normal;font-stretch:normal;text-indent:0;text-align:start;text-decoration:none;line-height:normal;letter-spacing:normal;word-spacing:normal;text-transform:none;direction:ltr;block-progression:tb;writing-mode:lr-tb;text-anchor:start;baseline-shift:baseline;color:#000000;fill:#c4905e;fill-opacity:1;fill-rule:nonzero;stroke:none;stroke-width:1.21926904;marker:none;visibility:visible;display:inline;overflow:visible;enable-background:accumulate;font-family:Sans;-inkscape-font-specification:Sans"
     d="M 0.5,2.03125 C 0.22409463,2.0816999 0.00276092,2.3445337 0,2.625 l 0,11.75 C -0.00837941,14.704465 0.29553521,15.008379 0.625,15 l 14.75,0 c 0.329465,0.0084 0.633379,-0.295535 0.625,-0.625 l 0,-9.71875 c 0.0084,-0.3294648 -0.295535,-0.6333794 -0.625,-0.625 l -6.3125,0 0,-1.40625 C 9.0542563,2.3059508 8.7565524,2.0231321 8.4375,2.03125 l -7.8125,0 c -0.0415201,-0.00428 -0.0834799,-0.00428 -0.125,0 z"
     id="path3912"
     inkscape:connector-curvature="0"
     sodipodi:nodetypes="ccccccccccccc" />
</svg>

<?xml version="1.0" encoding="UTF-8" standalone="no"?>
<!-- Created with Inkscape (http://www.inkscape.org/) -->

<svg
   xmlns:dc="http://purl.org/dc/elements/1.1/"
   xmlns:cc="http://creativecommons.org/ns#"
   xmlns:rdf="http://www.w3.org/1999/02/22-rdf-syntax-ns#"
   xmlns:svg="http://www.w3.org/2000/svg"
   xmlns="http://www.w3.org/2000/svg"
   xmlns:sodipodi="http://sodipodi.sourceforge.net/DTD/sodipodi-0.dtd"
   xmlns:inkscape="http://www.inkscape.org/namespaces/inkscape"
   id="svg3396"
   height="16"
   width="16"
   version="1.0"
   inkscape:version="0.48.5 r10040"
   sodipodi:docname="folder.svg">
  <metadata
     id="metadata64">
    <rdf:RDF>
      <cc:Work
         rdf:about="">
        <dc:format>image/svg+xml</dc:format>
        <dc:type
           rdf:resource="http://purl.org/dc/dcmitype/StillImage" />
        <dc:title />
      </cc:Work>
    </rdf:RDF>
  </metadata>
  <sodipodi:namedview
     pagecolor="#ffffff"
     bordercolor="#666666"
     borderopacity="1"
     objecttolerance="10"
     gridtolerance="10"
     guidetolerance="10"
     inkscape:pageopacity="0"
     inkscape:pageshadow="2"
     inkscape:window-width="1280"
     inkscape:window-height="998"
     id="namedview62"
     showgrid="true"
     inkscape:zoom="32"
     inkscape:cx="12.449869"
     inkscape:cy="4.7341494"
     inkscape:window-x="0"
     inkscape:window-y="0"
     inkscape:window-maximized="1"
     inkscape:current-layer="svg3396">
    <inkscape:grid
       type="xygrid"
       id="grid3906"
       empspacing="5"
       visible="true"
       enabled="true"
       snapvisiblegridlinesonly="true" />
  </sodipodi:namedview>
  <defs
     id="defs3398">
    <radialGradient
       id="radialGradient2661"
       gradientUnits="userSpaceOnUse"
       cy="35.126999"
       cx="23.070999"
       gradientTransform="matrix(1.0638,0.013724,-0.009553,0.23168,118.76592,36.591726)"
       r="10.319">
      <stop
         id="stop2093"
         offset="0" />
      <stop
         id="stop2095"
         style="stop-opacity:0"
         offset="1" />
    </radialGradient>
    <linearGradient
       id="linearGradient2658"
       y2="46.073002"
       gradientUnits="userSpaceOnUse"
       x2="28.857"
       y1="26"
       x1="28.857"
       gradientTransform="translate(106.84292,-0.48127441)">
      <stop
         id="stop3499"
         style="stop-color:#699536"
         offset="0" />
      <stop
         id="stop3501"
         style="stop-color:#587d2d"
         offset="1" />
    </linearGradient>
    <linearGradient
       id="linearGradient2656"
       y2="32.485001"
       gradientUnits="userSpaceOnUse"
       x2="24.104"
       gradientTransform="matrix(0.89889,0,0,0.89347,121.37892,14.952726)"
       y1="15.169"
       x1="24.104">
      <stop
         id="stop2266"
         style="stop-color:#d7e866"
         offset="0" />
      <stop
         id="stop2268"
         style="stop-color:#8cab2a"
         offset="1" />
    </linearGradient>
    <linearGradient
       id="linearGradient2653"
       y2="47.272999"
       gradientUnits="userSpaceOnUse"
       x2="24.139"
       gradientTransform="matrix(0.53994,0,0,0.53668,129.99392,23.012726)"
       y1="6.5317001"
       x1="24.139">
      <stop
         id="stop4224"
         style="stop-color:#fff"
         offset="0" />
      <stop
         id="stop4226"
         style="stop-color:#fff;stop-opacity:0"
         offset="1" />
    </linearGradient>
    <radialGradient
       id="radialGradient2455"
       gradientUnits="userSpaceOnUse"
       cy="5.0172"
       cx="3"
       gradientTransform="matrix(-1.2749e-8,1.7143,-2.1593,-1.46e-8,12.809,2.857)"
       r="21">
      <stop
         id="stop3486"
         style="stop-color:#bdbdbd"
         offset="0" />
      <stop
         id="stop3488"
         style="stop-color:#d0d0d0"
         offset="1" />
    </radialGradient>
    <linearGradient
       id="linearGradient2453"
       y2="16.190001"
       gradientUnits="userSpaceOnUse"
       x2="62.988998"
       gradientTransform="translate(-50.941,0)"
       y1="13.183"
       x1="62.988998">
      <stop
         id="stop6406"
         style="stop-color:#f9f9f9"
         offset="0" />
      <stop
         id="stop6408"
         style="stop-color:#c9c9c9"
         offset="1" />
    </linearGradient>
    <radialGradient
       id="radialGradient7600-312"
       gradientUnits="userSpaceOnUse"
       cy="486.64999"
       cx="605.71002"
       gradientTransform="matrix(-0.03213,0,0,0.037059,23.363,25.412)"
       r="117.14">
      <stop
         id="stop2681"
         offset="0" />
      <stop
         id="stop2683"
         style="stop-opacity:0"
         offset="1" />
    </radialGradient>
    <radialGradient
       id="radialGradient7598-526"
       gradientUnits="userSpaceOnUse"
       cy="486.64999"
       cx="605.71002"
       gradientTransform="matrix(0.03213,0,0,0.037059,24.637,25.412)"
       r="117.14">
      <stop
         id="stop2675"
         offset="0" />
      <stop
         id="stop2677"
         style="stop-opacity:0"
         offset="1" />
    </radialGradient>
    <linearGradient
       id="linearGradient7596-975"
       y2="609.51001"
       gradientUnits="userSpaceOnUse"
       x2="302.85999"
       gradientTransform="matrix(0.08284,0,0,0.037059,-5.9408,25.412)"
       y1="366.64999"
       x1="302.85999">
      <stop
         id="stop2667"
         style="stop-opacity:0"
         offset="0" />
      <stop
         id="stop2669"
         offset=".5" />
      <stop
         id="stop2671"
         style="stop-opacity:0"
         offset="1" />
    </linearGradient>
    <linearGradient
       id="linearGradient2446"
       y2="15.944"
       gradientUnits="userSpaceOnUse"
       x2="65.339996"
       gradientTransform="translate(-53.765,-0.11419)"
       y1="45.113998"
       x1="82.453003">
      <stop
         id="stop3624"
         style="stop-color:#bb2b12"
         offset="0" />
      <stop
         id="stop3626"
         style="stop-color:#cd7233"
         offset="1" />
    </linearGradient>
    <radialGradient
       id="radialGradient2444"
       gradientUnits="userSpaceOnUse"
       cy="14.113"
       cx="63.969002"
       gradientTransform="matrix(1.5647,-9.5143e-8,6.1772e-8,1.0159,-86.213,8.1461)"
       r="23.097">
      <stop
         id="stop3618"
         style="stop-color:#f0c178"
         offset="0" />
      <stop
         id="stop3270"
         style="stop-color:#e18941"
         offset=".5" />
      <stop
         id="stop3620"
         style="stop-color:#ec4f18"
         offset="1" />
    </radialGradient>
    <linearGradient
       id="linearGradient2441"
       y2="36.658001"
       gradientUnits="userSpaceOnUse"
       x2="22.809"
       gradientTransform="matrix(1.1447,0,0,0.99775,-3.4661,1.0988)"
       y1="49.629002"
       x1="22.934999">
      <stop
         id="stop2661"
         style="stop-color:#0a0a0a;stop-opacity:.498"
         offset="0" />
      <stop
         id="stop2663"
         style="stop-color:#0a0a0a;stop-opacity:0"
         offset="1" />
    </linearGradient>
    <radialGradient
       id="radialGradient2438"
       gradientUnits="userSpaceOnUse"
       cy="8.3021002"
       cx="7.2646999"
       gradientTransform="matrix(0,1.208,-1.6272,0,26.372,8.2665)"
       r="20.98">
      <stop
         id="stop2693"
         style="stop-color:#fff;stop-opacity:0.4"
         offset="0" />
      <stop
         id="stop2695"
         style="stop-color:#fff;stop-opacity:0"
         offset="1" />
    </radialGradient>
    <linearGradient
       id="linearGradient2435"
       y2="33.955002"
       gradientUnits="userSpaceOnUse"
       x2="15.215"
       y1="22.292"
       x1="11.566">
      <stop
         id="stop2687"
         style="stop-color:#fff;stop-opacity:.27451"
         offset="0" />
      <stop
         id="stop2689"
         style="stop-color:#fff;stop-opacity:.078431"
         offset="1" />
    </linearGradient>
  </defs>
  <path
     style="font-size:medium;font-style:normal;font-variant:normal;font-weight:normal;font-stretch:normal;text-indent:0;text-align:start;text-decoration:none;line-height:normal;letter-spacing:normal;word-spacing:normal;text-transform:none;direction:ltr;block-progression:tb;writing-mode:lr-tb;text-anchor:start;baseline-shift:baseline;color:#000000;fill:#c4905e;fill-opacity:1;fill-rule:nonzero;stroke:none;stroke-width:1.21926904;marker:none;visibility:visible;display:inline;overflow:visible;enable-background:accumulate;font-family:Sans;-inkscape-font-specification:Sans"
     d="M 0.5,2 C 0.22409463,2.0505715 0.00276092,2.3140386 0,2.5951807 L 0,14.373494 C -0.00837941,14.703752 0.29553521,15.008399 0.625,15 l 14.75,0 C 15.704465,15.0084 16.008379,14.703752 16,14.373494 L 16,4.6313252 C 16.0084,4.3010665 15.704465,3.9916004 15.375,4 L 9,4 9,2.5951807 C 8.9917563,2.2753627 8.7565524,1.9918625 8.4375,2 L 0.625,2 C 0.5834799,1.9957097 0.5415201,1.9957097 0.5,2 z"
     id="path3912"
     inkscape:connector-curvature="0"
     sodipodi:nodetypes="ccccccccccccc" />
</svg>
